Numix/64/mimetypes/image-webp.svg

<?xml version="1.0" encoding="UTF-8" standalone="no"?>
<svg
   xmlns:dc="http://purl.org/dc/elements/1.1/"
   xmlns:cc="http://creativecommons.org/ns#"
   xmlns:rdf="http://www.w3.org/1999/02/22-rdf-syntax-ns#"
   xmlns:svg="http://www.w3.org/2000/svg"
   xmlns="http://www.w3.org/2000/svg"
   xmlns:sodipodi="http://sodipodi.sourceforge.net/DTD/sodipodi-0.dtd"
   xmlns:inkscape="http://www.inkscape.org/namespaces/inkscape"
   width="64px"
   height="64px"
   viewBox="0 0 64 64"
   version="1.1"
   id="svg2"
   inkscape:version="0.91 r13725"
   sodipodi:docname="image-webp3.svg">
  <metadata
     id="metadata25">
    <rdf:RDF>
      <cc:Work
         rdf:about="">
        <dc:format>image/svg+xml</dc:format>
        <dc:type
           rdf:resource="http://purl.org/dc/dcmitype/StillImage" />
        <dc:title></dc:title>
      </cc:Work>
    </rdf:RDF>
  </metadata>
  <defs
     id="defs23" />
  <sodipodi:namedview
     pagecolor="#ffffff"
     bordercolor="#666666"
     borderopacity="1"
     objecttolerance="10"
     gridtolerance="10"
     guidetolerance="10"
     inkscape:pageopacity="0"
     inkscape:pageshadow="2"
     inkscape:window-width="1366"
     inkscape:window-height="704"
     id="namedview21"
     showgrid="false"
     inkscape:zoom="1"
     inkscape:cx="34.039379"
     inkscape:cy="4.0875415"
     inkscape:window-x="0"
     inkscape:window-y="27"
     inkscape:window-maximized="1"
     inkscape:current-layer="svg2">
    <inkscape:grid
       type="xygrid"
       id="grid4153" />
  </sodipodi:namedview>
  <g
     id="surface1">
    <path
       style=" stroke:none;fill-rule:nonzero;fill:rgb(21.960784%,63.921569%,30.588235%);fill-opacity:1;"
       d="M 10.671875 0 C 9.296875 0 8 1.355469 8 2.789062 L 8 61.210938 C 8 62.566406 9.375 64 10.671875 64 L 53.328125 64 C 54.625 64 56 62.566406 56 61.210938 L 56 18 L 38 0 Z M 10.671875 0 "
       id="path5" />
    <path
       style=" stroke:none;fill-rule:nonzero;fill:rgb(0%,0%,0%);fill-opacity:0.196078;"
       d="M 42 18 L 56 32 L 56 18 Z M 42 18 "
       id="path7" />
    <path
       style=" stroke:none;fill-rule:nonzero;fill:rgb(100%,100%,100%);fill-opacity:0.392157;"
       d="M 38 0 L 55.984375 18 L 40.757812 18 C 39.410156 18 38 16.574219 38 15.226562 Z M 38 0 "
       id="path9" />
    <path
       style=" stroke:none;fill-rule:nonzero;fill:rgb(100%,100%,100%);fill-opacity:1;"
       d="M 23.289062 22 C 22.585938 22.066406 21.984375 22.8125 22 23.605469 L 22 40.433594 C 22.007812 41.261719 22.667969 42.007812 23.40625 42 L 40.628906 42 C 41.355469 41.984375 41.992188 41.253906 42 40.433594 L 42 23.605469 C 42.015625 22.769531 41.371094 22.007812 40.628906 22 Z M 24 24 L 40 24 L 40 35.402344 L 35.296875 30.085938 L 34.117188 31.21875 L 32.316406 32.859375 L 31.214844 31.761719 L 28.386719 27.9375 L 24 33.597656 Z M 24 24 "
       id="path11" />
    <path
       style=" stroke:none;fill-rule:nonzero;fill:rgb(0%,0%,0%);fill-opacity:0.196078;"
       d="M 8 48 L 8 61.335938 C 8 62.632812 9.375 64 10.664062 64 L 53.335938 64 C 54.625 64 56 62.632812 56 61.335938 L 56 48 Z M 8 48 "
       id="path13" />
    <path
       style="fill:#ffffff;fill-opacity:1;fill-rule:nonzero;stroke:none"
       d="m 40.775034,58.248484 c 0,0.533609 -0.09994,0.987811 -0.296736,1.346726 -0.203029,0.362091 -0.4779,0.647954 -0.824609,0.867114 -0.33422,0.206456 -0.740275,0.362092 -1.211931,0.460556 -0.465403,0.08575 -0.965167,0.127048 -1.502414,0.127048 -0.939618,0.0031 -1.850704,-0.09406 -2.714344,-0.22482 l 0,-8.696676 c 0.863356,-0.14255 1.7015,-0.151168 2.523807,-0.17843 0.740277,0 1.336873,0.06669 1.802276,0.212809 0.465405,0.133402 0.827734,0.314448 1.090109,0.546314 0.262379,0.219158 0.437294,0.466907 0.537248,0.746416 0.09059,0.273156 0.137435,0.552665 0.143683,0.835351 -0.0062,0.419263 -0.118695,0.790884 -0.346712,1.118037 -0.224895,0.3208 -0.524753,0.581253 -0.905823,0.775004 0.662189,0.219159 1.115101,0.511374 1.343118,0.886171 0.243633,0.37162 0.362328,0.765474 0.362328,1.178385 m -4.758372,-1.206972 0,2.413943 c 0.137432,0.02222 0.438534,0.03493 0.594711,0.04127 0.165548,0.01271 0.327971,0.01905 0.484147,0.01905 0.224894,0 0.440418,-0.01905 0.649694,-0.04447 0.209277,-0.04127 0.393562,-0.10164 0.549741,-0.187399 0.171793,-0.09529 0.309228,-0.228689 0.415428,-0.387501 0.103075,-0.174693 0.156177,-0.387503 0.156177,-0.647953 0,-0.43197 -0.14993,-0.740063 -0.45916,-0.917934 -0.293612,-0.187398 -0.693422,-0.285861 -1.199433,-0.285861 l -1.191305,0 m 0.910189,-1.467423 c 0.490392,0 0.865215,-0.09529 1.121344,-0.28904 0.24676,-0.200103 0.377947,-0.473258 0.377947,-0.813117 0,-0.212807 -0.03748,-0.377972 -0.109323,-0.505023 -0.07183,-0.133402 -0.178043,-0.235039 -0.302984,-0.301741 -0.124939,-0.07305 -0.274869,-0.123874 -0.437292,-0.139755 -0.171796,-0.03176 -0.343591,-0.04447 -0.524753,-0.04447 -0.307826,-0.01292 -0.748396,0.03634 -1.035128,0.06034 l 0,2.032794 0.910189,0"
       id="path15"
       inkscape:connector-curvature="0"
       sodipodi:nodetypes="cccccccccccccccccccscccscscccsccccccc" />
    <path
       style="fill:#ffffff;fill-opacity:1;fill-rule:nonzero;stroke:none"
       d="M 23.528618,61 C 23.006296,59.670506 22.51159,58.518836 22.005392,57.199222 21.458063,58.545937 20.986991,59.673731 20.426777,61 l -1.779406,0 C 18.310107,57.952048 18.080379,54.942065 18,52 l 1.976732,0 -0.110781,6.992851 1.332823,-3.406361 1.575155,0 1.277432,3.406361 L 23.964814,52 l 1.976733,0 c -0.144172,3.051118 -0.27333,6.029366 -0.630059,9 l -1.782867,0"
       id="path17"
       inkscape:connector-curvature="0"
       sodipodi:nodetypes="cccccccccccccc" />
    <path
       style="fill:#ffffff;fill-opacity:1;fill-rule:nonzero;stroke:none"
       d="m 44.39529,51.958501 c 1.205425,0 2.140615,0.233526 2.802538,0.703782 0.671031,0.463856 1.001993,1.228417 1.001993,2.284092 0,1.074867 -0.337034,1.845828 -1.01414,2.32888 -0.667993,0.470254 -1.612292,0.713377 -2.84201,0.713377 l -0.667995,0 0,3.019866 -1.894676,0 0,-8.880225 c 0.675535,-0.138727 1.351252,-0.119143 2.016128,-0.156974 0.221652,-0.0128 0.419014,-0.0128 0.598162,-0.0128 m 0.209506,1.545121 c -0.327812,-0.0038 -0.599208,0.02501 -0.92912,0.04478 l 0,2.888705 0.765157,0 c 0.604234,0 1.056645,-0.108765 1.363317,-0.329498 0.306671,-0.233527 0.458486,-0.623805 0.458486,-1.174034 0,-0.518243 -0.151815,-0.886127 -0.458486,-1.094063 -0.294525,-0.223931 -0.695322,-0.335896 -1.199354,-0.335896"
       id="path19"
       inkscape:connector-curvature="0"
       sodipodi:nodetypes="ccscscccccccccscscc" />
  </g>
  <path
     inkscape:connector-curvature="0"
     style="fill:#ffffff;fill-opacity:1;fill-rule:nonzero;stroke:none"
     d="m 27.241,61 0,-9 5.785661,0 0,1.5723 -4.119766,0 0,2.1987 3.381223,0 0,1.572408 -3.381223,0 0,2.084292 4.195273,0 0,1.5723 -5.861168,0"
     id="path11-2"
     sodipodi:nodetypes="ccccccccccccc" />
</svg>

<svg xmlns="http://www.w3.org/2000/svg" viewBox="0 0 64 64">
 <g>
  <path d="m 10.672 0 c -1.375 0 -2.672 1.355 -2.672 2.789 l 0 58.42 c 0 1.355 1.375 2.789 2.672 2.789 l 42.656 0 c 1.297 0 2.672 -1.434 2.672 -2.789 l 0 -43.21 l -18 -18 m -27.328 0" style="fill:#37a34d;fill-opacity:1;stroke:none;fill-rule:nonzero"/>
  <path d="m 42 18 l 14 14 l 0 -14 m -14 0" style="fill:#000;fill-opacity:0.196;stroke:none;fill-rule:nonzero"/>
  <path d="m 38 0 l 17.984 18 l -15.227 0 c -1.348 0 -2.758 -1.426 -2.758 -2.773 m 0 -15.227" style="fill:#fff;fill-opacity:0.392;stroke:none;fill-rule:nonzero"/>
  <path d="m 23.289 22 c -0.703 0.066 -1.305 0.813 -1.289 1.605 l 0 16.828 c 0.008 0.828 0.668 1.574 1.406 1.566 l 17.223 0 c 0.727 -0.016 1.363 -0.746 1.371 -1.566 l 0 -16.828 c 0.016 -0.836 -0.629 -1.598 -1.371 -1.605 m -16.629 2 l 16 0 l 0 11.402 l -4.703 -5.316 l -1.18 1.133 l -1.801 1.641 l -1.102 -1.098 l -2.828 -3.824 l -4.387 5.66 m 0 -9.598" style="fill:#fff;fill-opacity:1;stroke:none;fill-rule:nonzero"/>
  <path d="m 8 48 l 0 13.336 c 0 1.297 1.375 2.664 2.664 2.664 l 42.672 0 c 1.289 0 2.664 -1.367 2.664 -2.664 l 0 -13.336 m -48 0" style="fill:#000;fill-opacity:0.196;stroke:none;fill-rule:nonzero"/>
  <path d="m 40.775 58.25 c 0 0.534 -0.1 0.988 -0.297 1.347 -0.203 0.362 -0.478 0.648 -0.825 0.867 -0.334 0.206 -0.74 0.362 -1.212 0.461 -0.465 0.086 -0.965 0.127 -1.502 0.127 -0.94 0.003 -1.851 -0.094 -2.714 -0.225 l 0 -8.697 c 0.863 -0.143 1.702 -0.151 2.524 -0.178 0.74 0 1.337 0.067 1.802 0.213 0.465 0.133 0.828 0.314 1.09 0.546 0.262 0.219 0.437 0.467 0.537 0.746 0.091 0.273 0.137 0.553 0.144 0.835 -0.006 0.419 -0.119 0.791 -0.347 1.118 -0.225 0.321 -0.525 0.581 -0.906 0.775 0.662 0.219 1.115 0.511 1.343 0.886 0.244 0.372 0.362 0.765 0.362 1.178 m -4.758 -1.207 0 2.414 c 0.137 0.022 0.439 0.035 0.595 0.041 0.166 0.013 0.328 0.019 0.484 0.019 0.225 0 0.44 -0.019 0.65 -0.044 0.209 -0.041 0.394 -0.102 0.55 -0.187 0.172 -0.095 0.309 -0.229 0.415 -0.388 0.103 -0.175 0.156 -0.388 0.156 -0.648 0 -0.432 -0.15 -0.74 -0.459 -0.918 -0.294 -0.187 -0.693 -0.286 -1.199 -0.286 l -1.191 0 m 0.91 -1.467 c 0.49 0 0.865 -0.095 1.121 -0.289 0.247 -0.2 0.378 -0.473 0.378 -0.813 0 -0.213 -0.037 -0.378 -0.109 -0.505 -0.072 -0.133 -0.178 -0.235 -0.303 -0.302 -0.125 -0.073 -0.275 -0.124 -0.437 -0.14 -0.172 -0.032 -0.344 -0.044 -0.525 -0.044 -0.308 -0.013 -0.748 0.036 -1.035 0.06 l 0 2.033 0.91 0" style="fill:#fff;fill-opacity:1;stroke:none;fill-rule:nonzero"/>
  <path d="m 23.529 61 c -0.522 -1.329 -1.017 -2.481 -1.523 -3.801 -0.547 1.347 -1.018 2.475 -1.579 3.801 l -1.779 0 c -0.337 -3.048 -0.567 -6.06 -0.647 -9 l 1.977 0 -0.111 6.993 1.333 -3.406 1.575 0 1.277 3.406 l -0.087 -6.993 l 1.977 0 c -0.144 3.051 -0.273 6.03 -0.63 9 l -1.783 0" style="fill:#fff;fill-opacity:1;stroke:none;fill-rule:nonzero"/>
  <path d="m 44.4 51.959 c 1.205 0 2.141 0.234 2.803 0.704 0.671 0.464 1 1.228 1 2.284 0 1.075 -0.337 1.846 -1.014 2.329 -0.668 0.47 -1.612 0.713 -2.842 0.713 l -0.668 0 0 3.02 -1.895 0 0 -8.88 c 0.676 -0.139 1.351 -0.119 2.02 -0.157 0.222 -0.013 0.419 -0.013 0.598 -0.013 m 0.21 1.545 c -0.328 -0.004 -0.599 0.025 -0.929 0.045 l 0 2.889 0.765 0 c 0.604 0 1.057 -0.109 1.363 -0.329 0.307 -0.234 0.458 -0.624 0.458 -1.174 0 -0.518 -0.152 -0.886 -0.458 -1.094 -0.295 -0.224 -0.695 -0.336 -1.199 -0.336" style="fill:#fff;fill-opacity:1;stroke:none;fill-rule:nonzero"/>
 </g>
 <path d="m 27.24 61 0 -9 5.786 0 0 1.572 -4.12 0 0 2.199 3.381 0 0 1.572 -3.381 0 0 2.084 4.195 0 0 1.572 -5.861 0" style="fill:#fff;fill-opacity:1;stroke:none;fill-rule:nonzero"/>
</svg>
